backend/papyrus-web-graphics/src/main/resources/icons-override/full/obj16/Reception.svg

<?xml version="1.0" encoding="UTF-8" standalone="no"?>
<svg
   width="18"
   height="16"
   viewBox="0 0 4.7624999 4.2333332"
   version="1.1"
   id="svg8"
   inkscape:version="1.3 (0e150ed, 2023-07-21)"
   sodipodi:docname="Reception.svg"
   xmlns:inkscape="http://www.inkscape.org/namespaces/inkscape"
   xmlns:sodipodi="http://sodipodi.sourceforge.net/DTD/sodipodi-0.dtd"
   xmlns:xlink="http://www.w3.org/1999/xlink"
   xmlns="http://www.w3.org/2000/svg"
   xmlns:svg="http://www.w3.org/2000/svg">
  <defs
     id="defs2">
    <linearGradient
       inkscape:collect="always"
       id="linearGradient1086">
      <stop
         style="stop-color:#b9c8de;stop-opacity:1;"
         offset="0"
         id="stop1082" />
      <stop
         style="stop-color:#3d7ebd;stop-opacity:1"
         offset="1"
         id="stop1084" />
    </linearGradient>
    <linearGradient
       inkscape:collect="always"
       xlink:href="#linearGradient1086"
       id="linearGradient1088"
       x1="-0.80093998"
       y1="-3.7348001"
       x2="2.5992501"
       y2="4.0184498"
       gradientUnits="userSpaceOnUse" />
    <linearGradient
       inkscape:collect="always"
       xlink:href="#linearGradient1086"
       id="linearGradient1098"
       gradientUnits="userSpaceOnUse"
       x1="-0.80093998"
       y1="-3.7348001"
       x2="2.5992501"
       y2="4.0184498" />
    <linearGradient
       inkscape:collect="always"
       xlink:href="#linearGradient1086"
       id="linearGradient1100"
       gradientUnits="userSpaceOnUse"
       x1="-0.80093998"
       y1="-3.7348001"
       x2="2.5992501"
       y2="4.0184498" />
  </defs>
  <sodipodi:namedview
     id="base"
     pagecolor="#ffffff"
     bordercolor="#666666"
     borderopacity="1.0"
     inkscape:pageopacity="0"
     inkscape:pageshadow="2"
     inkscape:zoom="14.029854"
     inkscape:cx="1.5680848"
     inkscape:cy="9.8718064"
     inkscape:document-units="mm"
     inkscape:current-layer="g882"
     inkscape:document-rotation="0"
     showgrid="false"
     inkscape:pagecheckerboard="false"
     inkscape:window-width="2560"
     inkscape:window-height="1440"
     inkscape:window-x="0"
     inkscape:window-y="0"
     inkscape:window-maximized="0"
     units="px"
     inkscape:showpageshadow="2"
     inkscape:deskcolor="#d1d1d1" />
  <g
     id="g1">
    <g
       id="g882">
      <g
         id="g1096"
         transform="matrix(0.02968754,0,0,0.02968754,-4.431401,-0.80522205)">
        <g
           inkscape:label="Rendered Gears"
           transform="matrix(9.564118,0,0,9.564118,229.47846,98.421382)"
           id="g1057"
           style="fill:url(#linearGradient1088);fill-opacity:1;stroke:#2d6296;stroke-width:0.83646;stroke-miterlimit:4;stroke-dasharray:none;stroke-opacity:1">
          <path
             style="fill:url(#linearGradient1098);fill-opacity:1;stroke:#2d6296;stroke-width:0.83646;stroke-miterlimit:4;stroke-dasharray:none;stroke-opacity:1"
             d="m 3.7348,-0.80094 0.94462,-0.20258 0.31568,0.00993 1.36177,0.64918 V 0.34441 L 4.9951,0.99359 4.67942,1.00352 3.7348,0.80094 3.20725,2.07455 4.01845,2.59925 4.23464,2.8295 4.73852,4.25146 4.25146,4.73852 2.8295,4.23464 2.59925,4.01845 2.07455,3.20725 0.80094,3.7348 1.00352,4.67942 0.99359,4.9951 0.34441,6.35687 H -0.34441 L -0.99359,4.9951 -1.00352,4.67942 -0.80094,3.7348 -2.07455,3.20725 -2.59925,4.01845 -2.8295,4.23464 -4.25146,4.73852 -4.73852,4.25146 -4.23464,2.8295 -4.01845,2.59925 -3.20725,2.07455 -3.7348,0.80094 -4.67942,1.00352 -4.9951,0.99359 -6.35687,0.34441 v -0.68882 l 1.36177,-0.64918 0.31568,-0.00993 0.94462,0.20258 0.52755,-1.27361 -0.8112,-0.5247 -0.21619,-0.23025 -0.50388,-1.42196 0.48706,-0.48706 1.42196,0.50388 0.23025,0.21619 0.5247,0.8112 1.27361,-0.52755 -0.20258,-0.94462 0.00993,-0.31568 0.64918,-1.36177 h 0.68882 l 0.64918,1.36177 0.00993,0.31568 -0.20258,0.94462 1.27361,0.52755 0.5247,-0.8112 0.23025,-0.21619 1.42196,-0.50388 0.48706,0.48706 -0.50388,1.42196 -0.21619,0.23025 -0.8112,0.5247 z"
             id="path1053" />
          <circle
             style="fill:url(#linearGradient1100);fill-opacity:1;stroke:#2d6296;stroke-width:0.83646;stroke-miterlimit:4;stroke-dasharray:none;stroke-opacity:1"
             id="path1055"
             cx="0"
             cy="0"
             r="2" />
        </g>
        <circle
           style="opacity:1;fill:#ffffff;fill-opacity:1;stroke:none;stroke-width:15.0695;stroke-miterlimit:4;stroke-dasharray:none;stroke-opacity:1"
           id="path1090"
           cx="229.47845"
           cy="98.421379"
           r="4.6329565" />
      </g>
      <rect
         style="fill:#ffffff;stroke-width:0.0289417;stroke-linecap:round;fill-opacity:1"
         id="rect1"
         width="2.5459106"
         height="1.5464048"
         x="1.9801526"
         y="2.5270517" />
      <text
         xml:space="preserve"
         style="font-size:1.34462px;fill:#2e4f6e;fill-opacity:1;stroke-width:0.0105875;stroke-linecap:round"
         x="2.0205061"
         y="3.4464648"
         id="text1"
         transform="scale(0.91289811,1.0954125)"><tspan
           sodipodi:role="line"
           id="tspan1"
           style="fill:#2e4f6e;fill-opacity:1;stroke-width:0.0105875"
           x="2.0205061"
           y="3.4464648">&lt;S&gt;</tspan></text>
    </g>
  </g>
</svg>

<svg xmlns="http://www.w3.org/2000/svg" xmlns:xlink="http://www.w3.org/1999/xlink" width="16" height="16">
    <defs>
        <linearGradient id="a">
            <stop offset="0" style="stop-color:#b9c8de;stop-opacity:1"/>
            <stop offset="1" style="stop-color:#3d7ebd;stop-opacity:1"/>
        </linearGradient>
        <linearGradient xlink:href="#a" id="b" x1="-.801" x2="2.599" y1="-3.735" y2="4.018" gradientUnits="userSpaceOnUse"/>
        <linearGradient xlink:href="#a" id="c" x1="-.801" x2="2.599" y1="-3.735" y2="4.018" gradientUnits="userSpaceOnUse"/>
        <linearGradient xlink:href="#a" id="d" x1="-.801" x2="2.599" y1="-3.735" y2="4.018" gradientUnits="userSpaceOnUse"/>
    </defs>
    <g transform="translate(-18.813 -3.472)scale(.11675)">
        <g style="fill:url(#b);fill-opacity:1;stroke:#2d6296;stroke-width:.83646;stroke-miterlimit:4;stroke-dasharray:none;stroke-opacity:1" transform="translate(229.478 98.421)scale(9.56412)">
            <path d="m3.735-.8.944-.204.316.01 1.362.65v.688l-1.362.65-.316.01L3.735.8l-.528 1.274.811.524.217.23.504 1.422-.488.488-1.422-.504-.23-.217-.524-.81L.8 3.734l.203.944-.01.316-.65 1.362h-.688l-.65-1.362-.01-.316.203-.944-1.274-.528-.524.811-.23.217-1.422.504-.488-.488.504-1.422.217-.23.81-.524L-3.734.8l-.944.203-.316-.01-1.362-.65v-.688l1.362-.65.316-.01.944.203.528-1.274-.811-.524-.217-.23-.504-1.422.488-.488 1.422.504.23.217.524.81L-.8-3.734l-.203-.944.01-.316.65-1.362h.688l.65 1.362.01.316-.203.944 1.274.528.524-.811.23-.217 1.422-.504.488.488-.504 1.421-.217.23-.81.525z" style="fill:url(#c);fill-opacity:1;stroke:#2d6296;stroke-width:.83646;stroke-miterlimit:4;stroke-dasharray:none;stroke-opacity:1"/>
            <circle r="2" style="fill:url(#d);fill-opacity:1;stroke:#2d6296;stroke-width:.83646;stroke-miterlimit:4;stroke-dasharray:none;stroke-opacity:1"/>
        </g>
        <circle cx="229.478" cy="98.421" r="4.633" style="opacity:1;fill:#fff;fill-opacity:1;stroke:none;stroke-width:15.0695;stroke-miterlimit:4;stroke-dasharray:none;stroke-opacity:1"/>
    </g>
    <path d="m8.572 10.077 5.818.019c2.24.026 2.223 5.649.017 5.655l-5.852.02c-4.208.036-4.228-5.685.017-5.694" style="fill:#fff;fill-opacity:1;stroke-width:.102298;stroke-linecap:round;stroke-dasharray:none"/>
    <text xml:space="preserve" x="6.69" y="13.963" style="font-style:normal;font-weight:400;font-size:5.98864px;font-family:sans-serif;fill:#4d81b4;fill-opacity:1;stroke:none;stroke-width:.0471544;stroke-linecap:round" transform="scale(.89672 1.11517)"><tspan x="6.69" y="13.963" style="font-style:normal;font-variant:normal;font-weight:700;font-stretch:normal;font-family:Arial;-inkscape-font-specification:&quot;Arial Bold&quot;;fill:#4d81b4;fill-opacity:1;stroke-width:.0471544">&lt;S&gt;</tspan></text>
</svg>
